X: 1678
T: Lost Love Waltz
B: australian traditional tunes wiki
M:3/4
L:1/8
R: Waltz
Q: 1/4=100
K:D
V:1 
(3ABc|d6|c2B2AB|"SL"c3Bc2|E2F2G2|"SL"c6|c2(3cdc BA|"SL"F6|F2A2d2|
f6|g4f2|f3gfe|G4e2|e2d2e2|f3gfe|e2d2f2|A2B2c2||
d6|c2B2AB|"SL"c3Bc2|E2F2G2|"SL"c6|c2(3cdc BA|"SL"F6|F2A2d2|
f6|g4f2|f3gfe|d4B2|A2F2A2|fgf2e2|d3dd2|d4FG||
A3AA2|A2F2G2|B3BB2|(3BcB A2B2|"SL"c3cc2|c2f2e2|e2d2B2|A2F2G2|
A3AA2|A2F2G2|B3BB2|(3BcB A2B2|"SL"c3cc2|c2f2e2|d6-|d4z2||
% abcbook-tune_id 6342d53acf6142c8aa8c9561


% abcbook-boost 0
% abcbook-tablature 
% abcbook-transpose 
% abcbook-lastupdated 1665324377554
% abcbook-soundfonts 
% abcbook-repeats 1
% NFF Book 2007

